X:194
T:Green Garters. (p)1670.PLFD.194
T:Blue Petticoats. (p)1670.PLFD.194
M:6/4
L:1/4
Q:3/4=80
S:Playford, Dancing Master,4th Ed.,1670.
O:England
H:1670.
Z:Chris Partington
K:D
DDDd>ef|e2dB2A|FEDdef|1e2dd3:|2e2dd2|
|:f|ec2d>ef/g/|a2cB2A|df2ce2|FEDd2f|
ec2d>ef/g/|a2cB2A|df2ce2|FEDd3|]
